; HEADER_BLOCK_START
; generated by OrcaSlicer 2.4.2 on 2026-07-09 at 22:55:00
; total layer number: 4
; filament_density: 1.25
; filament_diameter: 1.75
; max_z_height: 0.88
; filament: 1
; HEADER_BLOCK_END

; THUMBNAIL_BLOCK_START

;
; THUMBNAIL_BLOCK_END

; THUMBNAIL_BLOCK_START

;
; THUMBNAIL_BLOCK_END

; external perimeters extrusion width = 0.40mm
; perimeters extrusion width = 0.45mm
; infill extrusion width = 0.45mm
; solid infill extrusion width = 0.40mm
; top infill extrusion width = 0.40mm
; first layer extrusion width = 0.56mm

; external perimeters extrusion width = 0.40mm
; perimeters extrusion width = 0.45mm
; infill extrusion width = 0.45mm
; solid infill extrusion width = 0.40mm
; top infill extrusion width = 0.40mm
; first layer extrusion width = 0.56mm

; EXECUTABLE_BLOCK_START
M73 P0 R30
;TYPE:Custom
; Geeetech official wiki homepage for A20M: https://www.geeetech.com/wiki/index.php/Geeetech_A20M_3D_printer 

M104 S200 ; set extruder temp
M140 S55 ; set bed temp
M190 S55 ; wait for bed temp

G28 ; Home all axes first

; --- KLIPPER NATIVE ADAPTIVE MESH ---
; This automatically queries OrcaSlicer's object labels and shrinks the probe zone

BED_MESH_CALIBRATE ADAPTIVE=1 ADAPTIVE_MARGIN=2

M109 S200 ; wait for extruder temp

SMART_PARK; Park Head to wait for temp

M220 S100 ; Reset Feedrate
M221 S100 ; Reset Flowrate
G92 E0 ; Reset Extruder
M107 ; Off Fan
T0 ; Choose initial filament for the first line

; --- ADAPTIVE PURGE CALL ---
;<-- Use this if you included KAMP_Settings.cfg
;VORON_PURGE; <-- VORON LOGO
;LINE_PURGE;  <-- Adaptive purge
G92 E0 ; Reset Extruder


G90
G21
M83 ; use relative distances for extrusion
; Filament gcode
M106 S0
;LAYER_CHANGE
;Z:0.28
;HEIGHT:0.28
G92 E0
;------------------------------------
;layer No: 0 ———>Print Height: 0.28 mm
;------------------------------------
;_SET_FAN_SPEED_CHANGING_LAYER
SET_VELOCITY_LIMIT ACCEL=500 ACCEL_TO_DECEL=250
;CUSTOM_GCODE
; start pressure advance pattern for layer
G1 E-6.5 F1500
G1 X75.774 Y127.28 F9000
G1 E6.3 F1500
G1 Z.28 F9000
SET_PRESSURE_ADVANCE ADVANCE=0; Override pressure advance value
G1 E-6.5 F1500
G1 X75.774 Y127.28 F9000
G1 E6.3 F1500
G1 F1800
G1 X75.774 Y169.706 E2.41962

G1 X174.226 Y169.706 E5.61482

G1 X174.226 Y127.28 E2.41962

G1 X75.774 Y127.28 E5.61482
G1 E-6.5 F1500
G1 X76.274 Y127.78 F9000
G1 E6.3 F1500
G1 F1800
G1 X76.274 Y169.206 E2.3626

G1 X173.726 Y169.206 E5.5578

G1 X173.726 Y127.78 E2.3626

G1 X76.274 Y127.78 E5.5578
M73 P1 R30
G1 E-6.5 F1500
G1 X76.774 Y128.28 F9000
G1 E6.3 F1500
G1 F1800
G1 X76.774 Y168.707 E2.30558

G1 X173.226 Y168.707 E5.50078

G1 X173.226 Y128.28 E2.30558

G1 X76.774 Y128.28 E5.50078
G1 E-6.5 F1500
G1 X75.774 Y170.206 F9000
G1 E6.3 F1500
G1 F1800
G1 X75.774 Y183.706 E.76991

G1 X174.226 Y183.706 E5.61482

G1 X174.226 Y170.206 E.76991
M73 P1 R29

G1 X75.774 Y170.206 E5.61482
M73 P2 R29
G1 E-6.5 F1500
G1 X76.274 Y170.706 F9000
G1 E6.3 F1500
G1 F1800
G1 X76.274 Y183.206 E.71289

G1 X173.726 Y183.206 E5.5578

G1 X173.726 Y170.706 E.71289

G1 X76.274 Y170.706 E5.5578
G1 E-6.5 F1500
G1 X76.774 Y171.206 F9000
G1 E6.3 F1500
G1 F1800
G1 X76.774 Y182.706 E.65587

G1 X173.226 Y182.706 E5.50078

G1 X173.226 Y171.206 E.65587

G1 X76.774 Y171.206 E5.50078
G1 E-6.5 F1500
M73 P3 R29
G1 X77.147 Y171.579 F9000
G1 E6.3 F1500
G1 E-6.5
G1 X77.854 Y171.579 F9000
G1 E6.3 F1500
G1 F1800
G1 X77.147 Y172.286 E.05702
G1 E-6.5 F1500
G1 X77.147 Y172.993 F9000
G1 E6.3 F1500
G1 F1800
G1 X78.561 Y171.579 E.11404
G1 E-6.5 F1500
G1 X79.268 Y171.579 F9000
G1 E6.3 F1500
G1 F1800
G1 X77.147 Y173.7 E.17106
G1 E-6.5 F1500
G1 X77.147 Y174.407 F9000
G1 E6.3 F1500
G1 F1800
G1 X79.975 Y171.579 E.22808
G1 E-6.5 F1500
G1 X80.682 Y171.579 F9000
G1 E6.3 F1500
G1 F1800
G1 X77.147 Y175.114 E.2851
G1 E-6.5 F1500
G1 X77.147 Y175.821 F9000
G1 E6.3 F1500
G1 F1800
G1 X81.389 Y171.579 E.34213
G1 E-6.5 F1500
G1 X82.096 Y171.579 F9000
G1 E6.3 F1500
G1 F1800
G1 X77.147 Y176.528 E.39915
G1 E-6.5 F1500
G1 X77.147 Y177.235 F9000
G1 E6.3 F1500
G1 F1800
G1 X82.803 Y171.579 E.45617
G1 E-6.5 F1500
G1 X83.51 Y171.579 F9000
G1 E6.3 F1500
G1 F1800
G1 X77.147 Y177.942 E.51319
G1 E-6.5 F1500
G1 X77.147 Y178.649 F9000
G1 E6.3 F1500
G1 F1800
G1 X84.217 Y171.579 E.57021
G1 E-6.5 F1500
G1 X84.924 Y171.579 F9000
G1 E6.3 F1500
G1 F1800
G1 X77.147 Y179.356 E.62723
G1 E-6.5 F1500
G1 X77.147 Y180.063 F9000
G1 E6.3 F1500
G1 F1800
G1 X85.631 Y171.579 E.68425
G1 E-6.5 F1500
G1 X86.338 Y171.579 F9000
G1 E6.3 F1500
G1 F1800
G1 X77.147 Y180.77 E.74127
G1 E-6.5 F1500
G1 X77.147 Y181.477 F9000
G1 E6.3 F1500
G1 F1800
G1 X87.045 Y171.579 E.79829
G1 E-6.5 F1500
G1 X87.752 Y171.579 F9000
G1 E6.3 F1500
G1 F1800
G1 X77.147 Y182.184 E.85531
G1 E-6.5 F1500
G1 X77.705 Y182.333 F9000
G1 E6.3 F1500
G1 F1800
G1 X88.459 Y171.579 E.86732
G1 E-6.5 F1500
G1 X89.166 Y171.579 F9000
G1 E6.3 F1500
G1 F1800
G1 X78.412 Y182.333 E.86732
G1 E-6.5 F1500
G1 X79.119 Y182.333 F9000
G1 E6.3 F1500
G1 F1800
G1 X89.873 Y171.579 E.86732
G1 E-6.5 F1500
M73 P4 R29
G1 X90.58 Y171.579 F9000
G1 E6.3 F1500
G1 F1800
G1 X79.826 Y182.333 E.86732
G1 E-6.5 F1500
G1 X80.533 Y182.333 F9000
G1 E6.3 F1500
G1 F1800
G1 X91.287 Y171.579 E.86732
G1 E-6.5 F1500
G1 X91.994 Y171.579 F9000
G1 E6.3 F1500
G1 F1800
G1 X81.24 Y182.333 E.86732
G1 E-6.5 F1500
G1 X81.947 Y182.333 F9000
G1 E6.3 F1500
G1 F1800
G1 X92.701 Y171.579 E.86732
G1 E-6.5 F1500
G1 X93.408 Y171.579 F9000
G1 E6.3 F1500
G1 F1800
G1 X82.654 Y182.333 E.86732
G1 E-6.5 F1500
G1 X83.361 Y182.333 F9000
G1 E6.3 F1500
G1 F1800
G1 X94.115 Y171.579 E.86732
G1 E-6.5 F1500
G1 X94.822 Y171.579 F9000
G1 E6.3 F1500
G1 F1800
G1 X84.068 Y182.333 E.86732
G1 E-6.5 F1500
G1 X84.775 Y182.333 F9000
G1 E6.3 F1500
G1 F1800
G1 X95.529 Y171.579 E.86732
G1 E-6.5 F1500
G1 X96.236 Y171.579 F9000
G1 E6.3 F1500
G1 F1800
G1 X85.482 Y182.333 E.86732
G1 E-6.5 F1500
G1 X86.189 Y182.333 F9000
G1 E6.3 F1500
G1 F1800
G1 X96.943 Y171.579 E.86732
G1 E-6.5 F1500
G1 X97.65 Y171.579 F9000
G1 E6.3 F1500
G1 F1800
G1 X86.896 Y182.333 E.86732
G1 E-6.5 F1500
G1 X87.603 Y182.333 F9000
G1 E6.3 F1500
G1 F1800
G1 X98.357 Y171.579 E.86732
G1 E-6.5 F1500
G1 X99.064 Y171.579 F9000
G1 E6.3 F1500
G1 F1800
G1 X88.31 Y182.333 E.86732
G1 E-6.5 F1500
G1 X89.017 Y182.333 F9000
G1 E6.3 F1500
G1 F1800
G1 X99.771 Y171.579 E.86732
G1 E-6.5 F1500
G1 X100.478 Y171.579 F9000
G1 E6.3 F1500
G1 F1800
G1 X89.724 Y182.333 E.86732
G1 E-6.5 F1500
G1 X90.431 Y182.333 F9000
G1 E6.3 F1500
G1 F1800
G1 X101.185 Y171.579 E.86732
G1 E-6.5 F1500
M73 P5 R29
G1 X101.891 Y171.579 F9000
G1 E6.3 F1500
G1 F1800
G1 X91.138 Y182.333 E.86732
G1 E-6.5 F1500
G1 X91.845 Y182.333 F9000
G1 E6.3 F1500
G1 F1800
G1 X102.598 Y171.579 E.86732
G1 E-6.5 F1500
M73 P5 R28
G1 X103.305 Y171.579 F9000
G1 E6.3 F1500
G1 F1800
G1 X92.552 Y182.333 E.86732
G1 E-6.5 F1500
G1 X93.259 Y182.333 F9000
G1 E6.3 F1500
G1 F1800
G1 X104.012 Y171.579 E.86732
G1 E-6.5 F1500
G1 X104.719 Y171.579 F9000
G1 E6.3 F1500
G1 F1800
G1 X93.966 Y182.333 E.86732
G1 E-6.5 F1500
G1 X94.673 Y182.333 F9000
G1 E6.3 F1500
G1 F1800
G1 X105.426 Y171.579 E.86732
G1 E-6.5 F1500
G1 X106.133 Y171.579 F9000
G1 E6.3 F1500
G1 F1800
G1 X95.38 Y182.333 E.86732
G1 E-6.5 F1500
G1 X96.087 Y182.333 F9000
G1 E6.3 F1500
G1 F1800
G1 X106.84 Y171.579 E.86732
G1 E-6.5 F1500
G1 X107.547 Y171.579 F9000
G1 E6.3 F1500
G1 F1800
G1 X96.794 Y182.333 E.86732
G1 E-6.5 F1500
G1 X97.501 Y182.333 F9000
G1 E6.3 F1500
G1 F1800
G1 X108.254 Y171.579 E.86732
G1 E-6.5 F1500
G1 X108.961 Y171.579 F9000
G1 E6.3 F1500
G1 F1800
G1 X98.208 Y182.333 E.86732
G1 E-6.5 F1500
G1 X98.915 Y182.333 F9000
G1 E6.3 F1500
G1 F1800
G1 X109.668 Y171.579 E.86732
G1 E-6.5 F1500
G1 X110.375 Y171.579 F9000
G1 E6.3 F1500
G1 F1800
G1 X99.622 Y182.333 E.86732
G1 E-6.5 F1500
G1 X100.329 Y182.333 F9000
G1 E6.3 F1500
G1 F1800
G1 X111.082 Y171.579 E.86732
G1 E-6.5 F1500
G1 X111.789 Y171.579 F9000
G1 E6.3 F1500
G1 F1800
G1 X101.036 Y182.333 E.86732
G1 E-6.5 F1500
G1 X101.743 Y182.333 F9000
G1 E6.3 F1500
G1 F1800
G1 X112.496 Y171.579 E.86732
G1 E-6.5 F1500
M73 P6 R28
G1 X113.203 Y171.579 F9000
G1 E6.3 F1500
G1 F1800
G1 X102.45 Y182.333 E.86732
G1 E-6.5 F1500
G1 X103.157 Y182.333 F9000
G1 E6.3 F1500
G1 F1800
G1 X113.91 Y171.579 E.86732
G1 E-6.5 F1500
G1 X114.617 Y171.579 F9000
G1 E6.3 F1500
G1 F1800
G1 X103.864 Y182.333 E.86732
G1 E-6.5 F1500
G1 X104.571 Y182.333 F9000
G1 E6.3 F1500
G1 F1800
G1 X115.324 Y171.579 E.86732
G1 E-6.5 F1500
G1 X116.031 Y171.579 F9000
G1 E6.3 F1500
G1 F1800
G1 X105.278 Y182.333 E.86732
G1 E-6.5 F1500
G1 X105.984 Y182.333 F9000
G1 E6.3 F1500
G1 F1800
G1 X116.738 Y171.579 E.86732
G1 E-6.5 F1500
G1 X117.445 Y171.579 F9000
G1 E6.3 F1500
G1 F1800
G1 X106.691 Y182.333 E.86732
G1 E-6.5 F1500
G1 X107.398 Y182.333 F9000
G1 E6.3 F1500
G1 F1800
G1 X118.152 Y171.579 E.86732
G1 E-6.5 F1500
G1 X118.859 Y171.579 F9000
G1 E6.3 F1500
G1 F1800
G1 X108.105 Y182.333 E.86732
G1 E-6.5 F1500
G1 X108.812 Y182.333 F9000
G1 E6.3 F1500
G1 F1800
G1 X119.566 Y171.579 E.86732
G1 E-6.5 F1500
G1 X120.273 Y171.579 F9000
G1 E6.3 F1500
G1 F1800
G1 X109.519 Y182.333 E.86732
G1 E-6.5 F1500
G1 X110.226 Y182.333 F9000
G1 E6.3 F1500
G1 F1800
G1 X120.98 Y171.579 E.86732
G1 E-6.5 F1500
G1 X121.687 Y171.579 F9000
G1 E6.3 F1500
G1 F1800
G1 X110.933 Y182.333 E.86732
G1 E-6.5 F1500
G1 X111.64 Y182.333 F9000
G1 E6.3 F1500
G1 F1800
G1 X122.394 Y171.579 E.86732
G1 E-6.5 F1500
G1 X123.101 Y171.579 F9000
G1 E6.3 F1500
G1 F1800
G1 X112.347 Y182.333 E.86732
G1 E-6.5 F1500
G1 X113.054 Y182.333 F9000
G1 E6.3 F1500
G1 F1800
G1 X123.808 Y171.579 E.86732
G1 E-6.5 F1500
M73 P7 R28
G1 X124.515 Y171.579 F9000
G1 E6.3 F1500
G1 F1800
G1 X113.761 Y182.333 E.86732
G1 E-6.5 F1500
G1 X114.468 Y182.333 F9000
G1 E6.3 F1500
G1 F1800
G1 X125.222 Y171.579 E.86732
G1 E-6.5 F1500
G1 X125.929 Y171.579 F9000
G1 E6.3 F1500
G1 F1800
G1 X115.175 Y182.333 E.86732
G1 E-6.5 F1500
G1 X115.882 Y182.333 F9000
G1 E6.3 F1500
G1 F1800
G1 X126.636 Y171.579 E.86732
G1 E-6.5 F1500
G1 X127.343 Y171.579 F9000
G1 E6.3 F1500
G1 F1800
G1 X116.589 Y182.333 E.86732
G1 E-6.5 F1500
G1 X117.296 Y182.333 F9000
G1 E6.3 F1500
G1 F1800
G1 X128.05 Y171.579 E.86732
G1 E-6.5 F1500
G1 X128.757 Y171.579 F9000
G1 E6.3 F1500
G1 F1800
G1 X118.003 Y182.333 E.86732
G1 E-6.5 F1500
G1 X118.71 Y182.333 F9000
G1 E6.3 F1500
G1 F1800
G1 X129.464 Y171.579 E.86732
G1 E-6.5 F1500
G1 X130.171 Y171.579 F9000
G1 E6.3 F1500
G1 F1800
G1 X119.417 Y182.333 E.86732
G1 E-6.5 F1500
G1 X120.124 Y182.333 F9000
G1 E6.3 F1500
G1 F1800
G1 X130.878 Y171.579 E.86732
G1 E-6.5 F1500
G1 X131.585 Y171.579 F9000
G1 E6.3 F1500
G1 F1800
G1 X120.831 Y182.333 E.86732
G1 E-6.5 F1500
G1 X121.538 Y182.333 F9000
G1 E6.3 F1500
G1 F1800
G1 X132.292 Y171.579 E.86732
G1 E-6.5 F1500
G1 X132.999 Y171.579 F9000
G1 E6.3 F1500
G1 F1800
G1 X122.245 Y182.333 E.86732
G1 E-6.5 F1500
G1 X122.952 Y182.333 F9000
G1 E6.3 F1500
G1 F1800
G1 X133.706 Y171.579 E.86732
G1 E-6.5 F1500
G1 X134.413 Y171.579 F9000
G1 E6.3 F1500
G1 F1800
G1 X123.659 Y182.333 E.86732
G1 E-6.5 F1500
G1 X124.366 Y182.333 F9000
G1 E6.3 F1500
G1 F1800
G1 X135.12 Y171.579 E.86732
G1 E-6.5 F1500
M73 P8 R28
G1 X135.827 Y171.579 F9000
G1 E6.3 F1500
G1 F1800
G1 X125.073 Y182.333 E.86732
G1 E-6.5 F1500
G1 X125.78 Y182.333 F9000
G1 E6.3 F1500
G1 F1800
G1 X136.534 Y171.579 E.86732
G1 E-6.5 F1500
G1 X137.241 Y171.579 F9000
G1 E6.3 F1500
G1 F1800
G1 X126.487 Y182.333 E.86732
G1 E-6.5 F1500
G1 X127.194 Y182.333 F9000
G1 E6.3 F1500
G1 F1800
G1 X137.948 Y171.579 E.86732
G1 E-6.5 F1500
G1 X138.655 Y171.579 F9000
G1 E6.3 F1500
G1 F1800
G1 X127.901 Y182.333 E.86732
G1 E-6.5 F1500
G1 X128.608 Y182.333 F9000
G1 E6.3 F1500
G1 F1800
G1 X139.362 Y171.579 E.86732
G1 E-6.5 F1500
G1 X140.068 Y171.579 F9000
G1 E6.3 F1500
G1 F1800
G1 X129.315 Y182.333 E.86732
G1 E-6.5 F1500
M73 P8 R27
G1 X130.022 Y182.333 F9000
G1 E6.3 F1500
G1 F1800
G1 X140.775 Y171.579 E.86732
G1 E-6.5 F1500
G1 X141.482 Y171.579 F9000
G1 E6.3 F1500
G1 F1800
G1 X130.729 Y182.333 E.86732
G1 E-6.5 F1500
G1 X131.436 Y182.333 F9000
G1 E6.3 F1500
G1 F1800
G1 X142.189 Y171.579 E.86732
G1 E-6.5 F1500
G1 X142.896 Y171.579 F9000
G1 E6.3 F1500
G1 F1800
G1 X132.143 Y182.333 E.86732
G1 E-6.5 F1500
G1 X132.85 Y182.333 F9000
G1 E6.3 F1500
G1 F1800
G1 X143.603 Y171.579 E.86732
G1 E-6.5 F1500
G1 X144.31 Y171.579 F9000
G1 E6.3 F1500
G1 F1800
G1 X133.557 Y182.333 E.86732
G1 E-6.5 F1500
G1 X134.264 Y182.333 F9000
G1 E6.3 F1500
G1 F1800
G1 X145.017 Y171.579 E.86732
G1 E-6.5 F1500
G1 X145.724 Y171.579 F9000
G1 E6.3 F1500
G1 F1800
G1 X134.971 Y182.333 E.86732
G1 E-6.5 F1500
G1 X135.678 Y182.333 F9000
G1 E6.3 F1500
G1 F1800
G1 X146.431 Y171.579 E.86732
G1 E-6.5 F1500
M73 P9 R27
G1 X147.138 Y171.579 F9000
G1 E6.3 F1500
G1 F1800
G1 X136.385 Y182.333 E.86732
G1 E-6.5 F1500
G1 X137.092 Y182.333 F9000
G1 E6.3 F1500
G1 F1800
G1 X147.845 Y171.579 E.86732
G1 E-6.5 F1500
G1 X148.552 Y171.579 F9000
G1 E6.3 F1500
G1 F1800
G1 X137.799 Y182.333 E.86732
G1 E-6.5 F1500
G1 X138.506 Y182.333 F9000
G1 E6.3 F1500
G1 F1800
G1 X149.259 Y171.579 E.86732
G1 E-6.5 F1500
G1 X149.966 Y171.579 F9000
G1 E6.3 F1500
G1 F1800
G1 X139.213 Y182.333 E.86732
G1 E-6.5 F1500
G1 X139.92 Y182.333 F9000
G1 E6.3 F1500
G1 F1800
G1 X150.673 Y171.579 E.86732
G1 E-6.5 F1500
G1 X151.38 Y171.579 F9000
G1 E6.3 F1500
G1 F1800
G1 X140.627 Y182.333 E.86732
G1 E-6.5 F1500
G1 X141.334 Y182.333 F9000
G1 E6.3 F1500
G1 F1800
G1 X152.087 Y171.579 E.86732
G1 E-6.5 F1500
G1 X152.794 Y171.579 F9000
G1 E6.3 F1500
G1 F1800
G1 X142.041 Y182.333 E.86732
G1 E-6.5 F1500
G1 X142.748 Y182.333 F9000
G1 E6.3 F1500
G1 F1800
G1 X153.501 Y171.579 E.86732
G1 E-6.5 F1500
G1 X154.208 Y171.579 F9000
G1 E6.3 F1500
G1 F1800
G1 X143.455 Y182.333 E.86732
G1 E-6.5 F1500
G1 X144.162 Y182.333 F9000
G1 E6.3 F1500
G1 F1800
G1 X154.915 Y171.579 E.86732
G1 E-6.5 F1500
G1 X155.622 Y171.579 F9000
G1 E6.3 F1500
G1 F1800
G1 X144.868 Y182.333 E.86732
G1 E-6.5 F1500
G1 X145.575 Y182.333 F9000
G1 E6.3 F1500
G1 F1800
G1 X156.329 Y171.579 E.86732
G1 E-6.5 F1500
G1 X157.036 Y171.579 F9000
G1 E6.3 F1500
G1 F1800
G1 X146.282 Y182.333 E.86732
G1 E-6.5 F1500
G1 X146.989 Y182.333 F9000
G1 E6.3 F1500
G1 F1800
G1 X157.743 Y171.579 E.86732
G1 E-6.5 F1500
M73 P10 R27
G1 X158.45 Y171.579 F9000
G1 E6.3 F1500
G1 F1800
G1 X147.696 Y182.333 E.86732
G1 E-6.5 F1500
G1 X148.403 Y182.333 F9000
G1 E6.3 F1500
G1 F1800
G1 X159.157 Y171.579 E.86732
G1 E-6.5 F1500
G1 X159.864 Y171.579 F9000
G1 E6.3 F1500
G1 F1800
G1 X149.11 Y182.333 E.86732
G1 E-6.5 F1500
G1 X149.817 Y182.333 F9000
G1 E6.3 F1500
G1 F1800
G1 X160.571 Y171.579 E.86732
G1 E-6.5 F1500
G1 X161.278 Y171.579 F9000
G1 E6.3 F1500
G1 F1800
G1 X150.524 Y182.333 E.86732
G1 E-6.5 F1500
G1 X151.231 Y182.333 F9000
G1 E6.3 F1500
G1 F1800
G1 X161.985 Y171.579 E.86732
G1 E-6.5 F1500
G1 X162.692 Y171.579 F9000
G1 E6.3 F1500
G1 F1800
G1 X151.938 Y182.333 E.86732
G1 E-6.5 F1500
G1 X152.645 Y182.333 F9000
G1 E6.3 F1500
G1 F1800
G1 X163.399 Y171.579 E.86732
G1 E-6.5 F1500
G1 X164.106 Y171.579 F9000
G1 E6.3 F1500
G1 F1800
G1 X153.352 Y182.333 E.86732
G1 E-6.5 F1500
G1 X154.059 Y182.333 F9000
G1 E6.3 F1500
G1 F1800
G1 X164.813 Y171.579 E.86732
G1 E-6.5 F1500
G1 X165.52 Y171.579 F9000
G1 E6.3 F1500
G1 F1800
G1 X154.766 Y182.333 E.86732
G1 E-6.5 F1500
G1 X155.473 Y182.333 F9000
G1 E6.3 F1500
G1 F1800
G1 X166.227 Y171.579 E.86732
G1 E-6.5 F1500
G1 X166.934 Y171.579 F9000
G1 E6.3 F1500
G1 F1800
G1 X156.18 Y182.333 E.86732
G1 E-6.5 F1500
G1 X156.887 Y182.333 F9000
G1 E6.3 F1500
G1 F1800
G1 X167.641 Y171.579 E.86732
G1 E-6.5 F1500
G1 X168.348 Y171.579 F9000
G1 E6.3 F1500
G1 F1800
G1 X157.594 Y182.333 E.86732
G1 E-6.5 F1500
G1 X158.301 Y182.333 F9000
G1 E6.3 F1500
G1 F1800
G1 X169.055 Y171.579 E.86732
G1 E-6.5 F1500
M73 P11 R27
G1 X169.762 Y171.579 F9000
G1 E6.3 F1500
G1 F1800
G1 X159.008 Y182.333 E.86732
G1 E-6.5 F1500
G1 X159.715 Y182.333 F9000
G1 E6.3 F1500
G1 F1800
G1 X170.469 Y171.579 E.86732
G1 E-6.5 F1500
G1 X171.176 Y171.579 F9000
G1 E6.3 F1500
G1 F1800
G1 X160.422 Y182.333 E.86732
G1 E-6.5 F1500
G1 X161.129 Y182.333 F9000
G1 E6.3 F1500
G1 F1800
G1 X171.883 Y171.579 E.86732
G1 E-6.5 F1500
G1 X172.59 Y171.579 F9000
G1 E6.3 F1500
G1 F1800
G1 X161.836 Y182.333 E.86732
